X: 73
T: Roaring Mary
M: 4/4
L:1/8
C: traditional
S: Brendan Breathnach
K: G
DF ~F2 AF ~F2 | ABdf g2 fe | dedB AFAB | defd edBd | 
DF ~F2 AF ~F2 |ABdf g2 fe | dedB ABdf | afea fd d2 :||
abag faec| defd edBd | eg ~g2 bg ~g2 | af~f2 ge e2 |
DF ~F2 AF ~F2 | ABdf ~g2 fe | dedB ABdf | afea fd d2 :|
